!!!!SEGMENT: pl-kozmzk--mzk-m-288_lubomirski-kazimierz--piesn-z-wiezy.krn
!!!cenid: 18xx:3051
!!!COM: Lubomirski, Kazimierz
!!!COM-rismID: pe30107516
!!!CDT: 1813-1871
!!!CNT:
!!!OTL: Pieśń z wieży
!!!PDT:
!!!AGN: Secular
!!!SMS-siglum: PL-KOZmzk
!!!SMS-shelfmark: mzk/m/288
!!!SMS-shelfwork: W
!!!SMS-variant:
!!!SMS-altvar:
!!!NIFC-rismSourceID: 1001093278
!!!NIFC-rismChildID: 1001093278
!!!NIFC-islandoraID: pl-kozmzk:5676
!!!URL-pdf-islandora: https://repozytorium.nifc.pl/islandora/object/pl-kozmzk%3A5676/datastream/PDF/view
!!!URL-scan: https://polish.musicsources.pl/pl/lokalizacje/galeria/druki-muzyczne/7529 @EN{Scan on Polish Music Sources Website} @PL{Skany w portalu Dziedzictwo Muzyki Polskiej w otwartym dostępie}
!!!ONB-nifc:
!!!OMD: Andante.
!!!AIN: 2 piano 1 vox
!!!key: e
**kern	**kern	**dynam	**kern	**text	**dynam
*part3	*part2	*part2	*part1	*part1	*part1
*staff3	*staff2	*	*staff1	*staff1	*
*I"Fortepiano.	*I"Fortepiano.	*	*I"Głos.	*	*
*I'	*I'	*	*I'	*	*
*Ipiano	*Ipiano	*	*Ivox	*	*
*ICklav	*ICklav	*	*ICvox	*	*
*IGacmp	*IGacmp	*	*IGsolo	*	*
*clefF4	*clefG2	*	*clefG2	*	*
*k[f#]	*k[f#]	*	*k[f#]	*	*
*e:	*e:	*	*e:	*	*
*M4/4	*M4/4	*	*M4/4	*	*
*met(c)	*met(c)	*	*met(c)	*	*
=1	=1	=1	=1	=1	=1
!	!	!LO:DY:b=2	!	!	!
8EEE/L	2r	pp	1r	.	.
8EE/	.	.	.	.	.
8GG/	.	.	.	.	.
8BB/J	.	.	.	.	.
2rGG	8E</L	.	.	.	.
.	8G</	.	.	.	.
.	8B/	<	.	.	.
.	8e/J	.	.	.	.
=2	=2	=2	=2	=2	=2
4r	8g/L	.	1r	.	.
.	8b/J	[[	.	.	.
8g>\L	8eeL 8b/	>	.	.	.
8f#>\	8dd 8a/	.	.	.	.
8e>\	8cc 8g/	.	.	.	.
8d#X>\	8b 8f#/	.	.	.	.
8c>\	8a 8e/	.	.	.	.
8B>\J	8gJ 8e/	]	.	.	.
=3	=3	=3	=3	=3	=3
2c [>2A\	8f#L 8e/	p	1r	.	.
.	8e#X/	.	.	.	.
.	8f#/	.	.	.	.
.	8g/J	.	.	.	.
!	!	!LO:HP:b=2	!	!	!
8A\L]	8f#/	<	.	.	.
8G#X\	8r	.	.	.	.
8A\	4r	.	.	.	.
8B\J	.	[	.	.	.
!!linebreak:original
=4	=4	=4	=4	=4	=4
*	*^	*	*	*	*
!	!	!	!LO:DY:b=2	!	!	!
[2A#X [2AA#X\	8f#/L	[2c#X\	p	1r	.	.
.	8e#X/	.	.	.	.	.
.	8f#/	.	.	.	.	.
.	8g/J	.	.	.	.	.
8A#]L 8AA#/]	8f#/	8c#\]	.	.	.	.
!	!	!	!LO:HP:b=2	!	!	!
8AAn 8AAAn/	8r	8ryy	<	.	.	.
8AA#X 8AAA#X/	4r	4ryy	.	.	.	.
8C#XJ 8CC#X/	.	.	[	.	.	.
*	*v	*v	*	*	*	*
=5	=5	=5	=5	=5	=5
!	!	!LO:HP:a	!	!	!
1BB 1BBB	8gL 8e/	<	1r	.	.
.	8f# 8d#X/	.	.	.	.
.	8g 8e/	.	.	.	.
.	8aJ 8f#/	.	.	.	.
.	8bL 8g/	.	.	.	.
.	8f# 8d#/	.	.	.	.
.	8g 8e/	.	.	.	.
.	8d#J 8B/	[	.	.	.
=6	=6	=6	=6	=6	=6
[<2BB [2BBB/	8eL 8cn/	.	1r	.	.
.	8B 8G#X/	.	.	.	.
.	8dn 8B/	.	.	.	.
!	!	!LO:HP:a	!	!	!
.	8cJ 8A/	>	.	.	.
4.BB] 4.BBB\]	8B<L 8Gn</	.	.	.	.
.	8A< 8F#</	.	.	.	.
.	8G< 8E</	.	.	.	.
8C\	8F#<J 8E</	]]	.	.	.
!!linebreak:original
=7	=7	=7	=7	=7	=7
*	*^	*	*	*	*
!	!	!	!LO:DY:a=2	!	!	!
16BB\LL	8F#< 8D#X</	2ryy	p	1r	.	.
(>16BBB\	.	.	.	.	.	.
16DD#X\	8r	.	.	.	.	.
16FF#\JJ	.	.	.	.	.	.
16BB\LL	4r	.	.	.	.	.
16D#X\	.	.	.	.	.	.
16F#\	.	.	.	.	.	.
16B\JJ)	.	.	.	.	.	.
!	!LO:TX:a:i:t=riten.	!	!	!	!	!
2BB/	4g/	2d#X 2A\	.	.	.	.
.	4f#/	.	.	.	.	.
*	*v	*v	*	*	*	*
=8	=8	=8	=8	=8	=8
!	!LO:TX:a:B:t=a tempo.	!	!	!	!
4E 4EE/	8r	p	8b\	Któż	.
.	8e 8B 8G/	.	8r	.	.
4F# 4FF#\	8r	.	8b\	me	.
.	8d#X 8B 8A</	.	16r	.	.
.	.	.	16b\	wes-	.
4G 4GG\	8r	.	4.b\	-tchnie-	.
.	8e 8B/	.	.	.	.
4A 4AA\	8r	.	.	.	.
.	8f# 8e 8c/	.	8cc\	-nia	.
=9	=9	=9	=9	=9	=9
!LO:N:vis=4	!	!	!	!	!
8B 8BB\	8r	p	8b\	któż	.
8r	8g 8e/	.	8a/	me	.
4BB 4BBB/	8r	.	8g/	łzy	.
.	8f# 8d#X 8A/	.	8f#/	po-	.
4E 4EE/	8r	.	4f#/	-li-	.
.	8d# 8c 8A/	.	.	.	.
4E 4EE/	8r	.	8e/	-czy?	.
.	8e 8B 8G/	.	8r	.	.
!!linebreak:original
=10	=10	=10	=10	=10	=10
4E 4EE/	8r	.	4ee\	Czy	.
.	8e 8G#X/	.	.	.	.
!	!	!	!	!	!LO:DY:a
4F# 4FF#/	8r	.	8.ee\	już	<
.	8e 8A/	.	.	.	.
.	.	.	16ee\	tak	.
4G#X 4GG#X/	8r	.	4.ee\	dłu-	.
.	8e 8B/	.	.	.	.
4A 4AA\	8r	.	.	.	.
.	8e 8c/	.	8ee\	-gie	[
=11	=11	=11	=11	=11	=11
!	!	!	!	!	!LO:DY:a
4B 4BB\	8r	.	8ee\	prze-	>
.	8d 8G#X/	.	8ffn\	-pła-	.
4E 4EE/	8r	.	8ee\	-ka-	.
.	8e 8d 8G#/	.	8b\	-łam	.
4A 4AA\	8r	.	4dd\	la-	.
.	8fn 8d 8B 8G#/	.	.	.	.
4A 4AA\	8r	.	8cc\	-ta,	.
.	8e 8c/	.	8r	.	]
=12	=12	=12	=12	=12	=12
2Gn 2GGn/	8r	.	4b\	Czy	.
.	8eL 8B/	.	.	.	.
.	8e 8B/	.	8b\	ty-	.
.	8eJ 8B/	.	8b\	-le	.
2F# 2FF#/	8r	.	4a#X/	w pier-	.
.	8eL 8c#X/	.	.	.	.
.	8e 8c#/	.	8a#/	-siach	.
.	8eJ 8c#/	.	8a#/	i	.
!!pagebreak:original
=13	=13	=13	=13	=13	=13
4D#X\	8r	.	8an/L	o-	.
.	8f#X 8B 8A/	.	16b/L	.	.
.	.	.	16cc/JJ	.	.
4BB/	8r	.	8b\	-czach	.
.	8d#X 8B 8A/	.	8f#/	go-	.
.	.	.	8qa/	.	.
4E\	8r	.	4g/	-ry-	.
.	8e 8B 8G/	.	.	.	.
4EE/	8r	.	8g/	-czy,	.
.	8e 8B 8G/	.	8r	.	.
=14	=14	=14	=14	=14	=14
2C/	8r	.	4g/	Że	.
.	8eL 8c 8G/	.	.	.	.
.	8e 8c 8G/	.	8g/	od	.
.	8eJ 8c 8G/	.	8g/	mych	.
2AA/	8r	.	4.f#/	we-	.
.	8eL 8c 8F#</	.	.	.	.
.	8e 8c 8F#</	.	.	.	.
.	8eJ 8c 8F#</	.	8f#/	-stchnień	.
=15	=15	=15	=15	=15	=15
4AA#X\	8r	.	8e/	po-	.
.	8e 8c#X 8F#</	.	8e/	-rdza-	.
4FF#\	8r	.	8f#/	-wia-	.
.	8e 8A#X 8F#</	.	8e/	-ła	.
4.BB\	8r	.	(4d#X/	kra-	.
.	8d#XL 8B 8F#</	.	.	.	.
.	8d# 8B 8F#</	.	8b\)	-ta	.
8AAn\	8dnJ 8cn 8F#</	.	8r	.	.
!!linebreak:original
=16	=16	=16	=16	=16	=16
!	!	!	!LO:TX:a:B:t=Poco più mosso,e con espressione.	!	!
(16GG\LL	(16B/LL	.	4b\	Gdzie	.
16D\	16d/	.	.	.	.
16G\	16b/	.	.	.	.
16D\JJ)	16g/JJ)	.	.	.	.
(16DD\LL	(16B/LL	.	8.b\	łza	.
16D\	16d/	.	.	.	.
16G\	16b/	.	.	.	.
16D\JJ)	16g/JJ)	.	16b\	u-	.
!	!	!	!	!	!LO:DY:a
(16AA\LL	(16c/LL	.	4.dd\	-pa-	<
16D\	16d/	.	.	.	[
16A\	16cc/	.	.	.	.
16D\JJ)	16f#/JJ)	.	.	.	.
(16DD\LL	(16c/LL	.	.	.	.
16D\	16d/	.	.	.	.
16F#\	16a/	.	8cc\	-dnie	.
16D\JJ)	16f#/JJ)	.	.	.	.
=17	=17	=17	=17	=17	=17
(16FF#\LL	(16c/LL	.	(>8a/	wzim-	.
16D\	16d/	.	.	.	.
16A\	16f#/	.	8d/	-ny	.
16D\JJ)	16d/JJ)	.	.	.	.
(16DD\LL	(16c/LL	.	8e/	głaz	.
16D\	16d/	.	.	.	.
16F#\	16a/	.	8d/	prze-	.
16D\JJ)	16d/JJ)	.	.	.	.
(16GG\LL	(16B/LL	.	4a/	-cie-	.
16D\	16d/	.	.	.	.
16G\	16b/	.	.	.	.
16D\JJ)	16g/JJ)	.	.	.	.
(16DD\LL	(16B/LL	.	8g/)	-ka,	.
16D\	16d/	.	.	.	.
16G\	16b/	.	8r	.	.
16D\JJ)	16g/JJ)	.	.	.	.
!!linebreak:original
=18	=18	=18	=18	=18	=18
(16GG\LL	(16B/LL	.	4b\	Jak	.
16D\	16d/	.	.	.	.
16G\	16g/	.	.	.	.
16D\JJ)	16d/JJ)	.	.	.	.
(16AA\LL	(16c/LL	.	8.cc\	gdy-	.
16D\	16d/	.	.	.	.
16A\	16f#/	.	.	.	.
16D\JJ)	16d/JJ)	.	16cc\	-by	.
(16BB\LL	(16G/LL	.	4.dd\	w ser-	.
16D\	16B/	.	.	.	.
16G\	16d/	.	.	.	.
16B\JJ)	16g/JJ)	.	.	.	.
(16BB\LL	(16d/LL	.	.	.	.
16D\	16g/	.	.	.	.
16G\	16b/	.	8dd\	-ce	.
16B\JJ)	16dd/JJ)	.	.	.	.
=19	=19	=19	=19	=19	=19
8cL 8C\	8eeL 8cc 8g\	.	8ee\	do-	.
8B 8BB\	8gg 8dd 8g\	.	8dd\	-bre-	.
8A 8AA\	8dd 8cc 8f# 8d\	.	8cc\	-go	.
8GJ 8GG\	8ddJ 8b 8g 8d\	.	8b\	czło-	.
4D 4DD/	16r	.	4b\	-wie-	.
.	16d/LL	.	.	.	.
.	16g#X 16e#X/	.	.	.	.
.	16d/JJ	.	.	.	.
4D 4DD/	16r	.	8a/	-ka,	.
.	16d/LL	.	.	.	.
.	16a 16f#/	.	8r	.	.
.	16d/JJ	.	.	.	.
!!linebreak:original
=20	=20	=20	=20	=20	=20
!	!	!	!LO:TX:a:i:t=riten.	!	!
4B: 4G: 4D: 4GG:\	4dd: 4b: 4gn: 4d:/	.	4b\	jak	.
8B:L 8G: 8D: 8GG:\	8dd:L 8b: 8g: 8d:/	.	8b\	gdy-	.
8B:J 8G: 8D: 8GG:\	8dd:J 8b: 8g: 8d:/	.	8b\	-by	.
16r	4dd 4a 4en/	.	4b\	w ser-	.
32CC/LLL	.	.	.	.	.
32EE/JJJ	.	.	.	.	.
32GG#X/LLL	.	.	.	.	.
32AA/	.	.	.	.	.
32C/	.	.	.	.	.
32E/JJJ	.	.	.	.	.
8A\L	8ccL 8a 8e/	.	8a/	-ce	.
16B\L	16g#XL 16e#X/	.	8r	.	.
16c\JJ	16aJJ 16en/	.	.	.	.
=21	=21	=21	=21	=21	=21
16d\LL	16bLL 16g/	.	8g/	do-	.
16B\J	16ddJJ 16g 16d/	.	.	.	.
8c\J	16gLL 16e/	.	16f#/	-bre-	.
.	16a/JJ	.	16e/	-go	.
8d\L	8bL 8g/	.	8dS/	czło-	.
8D\J	8aJ 8f# 8c/	.	16b/	.	.
.	.	.	16a/	.	.
32r	4f# 4c/	fp	4a/	-wie-	.
32DD/LLL	.	.	.	.	.
32CC#X/	.	.	.	.	.
32DD/JJJ	.	.	.	.	.
32EE/LLL	.	.	.	.	.
32DD/	.	.	.	.	.
32CC#/	.	.	.	.	.
32DD/JJJ	.	.	.	.	.
32r	4g 4d 4B/	.	8g/	-ka!	.
32GG/LLL	.	.	.	.	.
32FF#/	.	.	.	.	.
32GG/JJJ	.	.	.	.	.
32AA/LLL	.	.	8r	.	.
32GG/	.	.	.	.	.
32FF#/	.	.	.	.	.
32GG/JJJ	.	.	.	.	.
!!pagebreak:original
=22	=22	=22	=22	=22	=22
32r	4fn 4d 4B/	.	1r	.	.
32GG/LLL	.	.	.	.	.
32FF#X/	.	.	.	.	.
32GG/JJJ	.	.	.	.	.
32AA/LLL	.	.	.	.	.
32GG/	.	.	.	.	.
32FF#/	.	.	.	.	.
32GG/JJJ	.	.	.	.	.
32r	4e 4c/	.	.	.	.
32GG/LLL	.	.	.	.	.
32FF#/	.	.	.	.	.
32GG/JJJ	.	.	.	.	.
32AA/LLL	.	.	.	.	.
!	!LO:TX:a:i:t=rall.	!	!	!	!
32GG/	.	.	.	.	.
32FF#/	.	.	.	.	.
32GG/JJJ	.	.	.	.	.
!	!	!LO:HP:a:i:t=dim.	!	!	!
32r	4e-X 4c 4G/	>	.	.	.
32GG/LLL	.	.	.	.	.
32FF#/	.	.	.	.	.
32GG/JJJ	.	.	.	.	.
32AA/LLL	.	.	.	.	.
32GG/	.	.	.	.	.
32FF#/	.	.	.	.	.
32GG/JJJ	.	.	.	.	.
32r	8e- 8c 8G/	.	.	.	.
32GG/LLL	.	.	.	.	.
32FF#/	.	.	.	.	.
32GG/JJJ	.	.	.	.	.
32r	8d 8B 8G 8Fn/	.	.	.	.
32GG/LLL	.	.	.	.	.
32FF#/	.	.	.	.	.
32GG/JJJ	.	.	.	.	.
!!linebreak:original
=23||	=23||	=23||	=23||	=23||	=23||
*k[]	*k[]	*	*k[]	*	*
*	*	*	*	*	*
!	!	!	!LO:TX:a:B:t=Moderato maestoso.	!	!
2C 2CC\	8r	.	(4g/	Jest	.
.	8eL 8c 8G 8E</	.	.	.	.
.	8e 8c 8G 8E</	.	8a/	wiecz-	.
.	8eJ 8c 8G 8E</	.	8b\	-ny	.
2C 2CC\	8r	.	4.cc\	o-	.
.	8eL 8c 8G 8E</	.	.	.	.
.	8e 8c 8G 8E</	.	.	.	.
.	8eJ 8c 8G 8E</	.	8cc\)	-gień	.
=24	=24	=24	=24	=24	=24
2C 2CC/	8r	.	(8b\	w zam-	.
.	8fL 8d 8A-X/	.	8b\	-ku	.
.	8f 8d 8A-/	.	8cc\	Swen-	.
.	8fJ 8d 8A-/	.	8dd\	-to-	.
2C 2CC/	8r	.	4dd\	-ro-	.
.	8eL 8c 8G/	.	.	.	.
.	8e 8c 8G/	.	8cc\)	-ga	.
.	8eJ 8c 8G/	.	8r	.	.
=25	=25	=25	=25	=25	=25
2AA\	8r	.	4cc\	ten	.
.	8cL 8A 8E</	.	.	.	.
.	8e 8c 8A</	.	8.cc\	o-	.
.	8aJ 8e 8c/	.	.	.	.
.	.	.	16cc\	-gień	.
2EE\	8r	.	4.b\	ży-	.
.	8BL 8G#X< 8E</	.	.	.	.
.	8e 8B 8G#</	.	.	.	.
.	8g#XJ 8e 8B/	.	8b\	-wią	.
!!linebreak:original
=26	=26	=26	=26	=26	=26
2FF\	8r	.	8a/	po-	.
.	8A<L 8F< 8C</	.	8a/	-bo-	.
.	8c 8A< 8F</	.	8b\	-żne	.
.	8fJ 8c 8A</	.	8a/	ka-	.
.	.	.	8qa/	.	.
2CC\	8r	.	4g/	-pła-	.
.	8Gn<L 8E< 8C</	.	.	.	.
.	8c< 8G< 8E</	.	8g/	-ny:	.
.	8eJ 8c 8G</	.	8r	.	.
=27	=27	=27	=27	=27	=27
!	!	!	!LO:TX:a:i:t=affrett.	!	!
4D 4DD\	16r	.	4g/	Jest	.
.	16F</LL	.	.	.	.
.	16G</	.	.	.	.
.	16B/JJ	.	.	.	.
4GG\	16f/LL	.	8a/	wie-	.
.	16B/	.	.	.	.
.	16G</	.	8b\	-czne	.
.	16F</JJ	.	.	.	.
!	!	!	!	!	!LO:DY:a
4C 4CC\	16r	.	4.cc\	źró-	<
!	!	!LO:HP:a	!	!	!
.	16E</LL	<	.	.	.
.	16G</	.	.	.	.
.	16c/JJ	.	.	.	.
4GG\	16gLL 16e/	.	.	.	.
.	16c/	.	.	.	.
.	16G</	.	8cc\	-dło	[
.	16E</JJ	[[	.	.	.
!!linebreak:original
=28	=28	=28	=28	=28	=28
4BB 4BBB\	16r	.	8dd\	na	.
.	16F</LL	.	.	.	.
.	16G</	.	8dd\	gó-	.
.	16d/JJ	.	.	.	.
4GG\	16gLL 16f/	.	(8cc\	-rze	.
.	16d/	.	.	.	.
.	16G</	.	8dd\	Men-	.
.	16F</JJ	.	.	.	.
4C 4CC\	16r	.	4ee\	-do-	.
.	16E</LL	.	.	.	.
.	16G</	.	.	.	.
.	16c/JJ	.	.	.	.
4GG\	16gLL 16e/	.	8cc\)	-ga,	.
.	16c/	.	.	.	.
.	16G</	.	8r	.	.
.	16E</JJ	.	.	.	.
=29	=29	=29	=29	=29	=29
4C#X 4CC#X\	8r	.	8r	.	.
!	!	!	!	!	!LO:DY:a
.	8eL 8A#X< 8G</	.	8ee\	to	>
.	.	>	.	.	.
8DL 8DD\	8d 8A#< 8G</	.	8dd\	źró-	.
8EJ 8EE\	8c#XJ 8A#< 8G</	.	8cc#X\	-dło	.
2D 2DD\	8r	.	4.ee\	ży-	.
.	8dL 8B 8G</	.	.	.	.
.	8d 8B 8G</	.	.	.	]
.	8dJ 8B 8G</	]	8dd\	-wią	.
!!pagebreak:original
=30	=30	=30	=30	=30	=30
2DD\	8r	.	8ccn\	śnie-	.
.	8dL 8A 8F#X</	.	8cc\	-gi	.
.	8d 8A 8F#</	.	8b\	i	.
.	8dJ 8A 8F#</	.	8a/	tu-	.
2GG/	8r	.	4a/	-ma-	.
.	8G/L	.	.	.	.
.	8g 8d 8B/	.	8g/	-ny:	.
.	8G/J	.	8r	.	.
=31	=31	=31	=31	=31	=31
!	!	!	!LO:TX:a:B:t=Agitato.	!	!
2Fn\	16r	.	4a-X/	Nikt	.
.	16A-X/LL	.	.	.	.
.	16B/	.	.	.	.
.	16d/JJ	.	.	.	.
.	16a-X/LL	.	8ff\	mo-	.
.	16d/	.	.	.	.
.	16B/	.	8ff\	-ich	.
.	16A-/JJ	.	.	.	.
2E-X\	16r	.	(4ee-X\	we-	.
.	16G/LL	.	.	.	.
.	16c/	.	.	.	.
.	16e-X/JJ	.	.	.	.
.	16g/LL	.	8cc\)	.	.
.	16e-/	.	.	.	.
.	16c/	.	8g/	-stchnień	.
.	16G/JJ	.	.	.	.
!!linebreak:original
=32	=32	=32	=32	=32	=32
4D\	16r	.	8f/	i	.
.	16A-X/LL	.	.	.	.
.	16c/	.	16g/LL	łez	.
.	16f/JJ	.	16a-X/JJ	.	.
4BB/	16r	.	8g/	nie	.
.	16G/LL	.	.	.	.
.	16d/	.	8d/	pod-	.
.	16f/JJ	.	.	.	.
2C/	16r	.	4f/	-sy-	.
.	16E-X/LL	.	.	.	.
.	16G/	.	.	.	.
.	16c/JJ	.	.	.	.
.	16e-X/LL	.	4e-X/	-ca,	.
.	16c/	.	.	.	.
.	16G/	.	.	.	.
.	16E-/JJ	.	.	.	.
=33	=33	=33	=33	=33	=33
2BB-X\	16r	.	4d/	A	.
.	16D</LL	.	.	.	.
.	16G</	.	.	.	.
.	16B-X/JJ	.	.	.	.
.	16d/LL	.	8dd\	do-	.
.	16B-/	.	.	.	.
.	16G</	.	8dd\	-tąd	.
.	16D</JJ	.	.	.	.
4AA\	16r	.	4.cc\	bo-	.
.	16E-X</LL	.	.	.	.
.	16G</	.	.	.	.
.	16c/JJ	.	.	.	.
4FF#X\	16r	.	.	.	.
.	16D</LL	.	.	.	.
.	16A</	.	8cc\	-li	.
.	16c/JJ	.	.	.	.
!!linebreak:original
=34	=34	=34	=34	=34	=34
4GG\	16r	.	8cc\	ser-	.
.	16D</LL	.	.	.	.
!	!	!	!LO:TX:a:i:t=riten.	!	!
.	16G</	.	8b-X\	-ce	.
!	!LO:TX:b:i:t=riten.	!	!	!	!
.	16B-X/JJ	.	.	.	.
4EE-X\	16r	.	8a/	i	.
.	16C#X</LL	.	.	.	.
.	16G</	.	8g/	źrze-	.
.	16A</JJ	.	.	.	.
[<2DD;<\	2A 2F#X< 2D<;/	.	4a;/	-ni-	.
.	.	.	16qqcc#X/LL	.	.
.	.	.	16qqdd/JJ	.	.
.	.	.	8d/	-ca.	.
.	.	.	8r	.	.
32DD/LLL]	8ryy	.	8ryy	.	.
32FF#X/	.	.	.	.	.
32AA/	.	.	.	.	.
32D/JJJ	.	.	.	.	.
!LO:N:vis=2	!LO:TX:a:i:t=leggiero	!	!	!	!
[2D\ [2AA [2FF# [2DD	32F#X</LLL	.	1ryy	.	.
.	32A</	.	.	.	.
.	32d/	.	.	.	.
.	32f#X/JJJ	.	.	.	.
!	!LO:TX:b:i:t=adlibitum.	!	!	!	!
.	32a\LLL	.	.	.	.
.	32dd\	.	.	.	.
.	32ff#X\	.	.	.	.
.	32aa\JJJ	.	.	.	.
.	4ddd;\	.	.	.	.
*	*Xtuplet	*	*	*	*
2D]\ 2AA] 2FF#] 2DD]	42ccc\LLL	.	.	.	.
.	42ddd\	.	.	.	.
.	42eee-X\JJJ	.	.	.	.
.	42aa\LLL	.	.	.	.
.	42bb-X\	.	.	.	.
.	42ccc\JJJ	.	.	.	.
.	42ff#\LLL	.	.	.	.
.	42gg\	.	.	.	.
.	42aa\JJJ	.	.	.	.
.	42cc\LLL	.	.	.	.
.	42dd\	.	.	.	.
.	42ee-X\JJJ	.	.	.	.
!	!LO:TX:b:i:t=riten.	!	!	!	!
.	42a/LLL	.	.	.	.
.	42cc/	.	.	.	.
.	42f#/JJJ	.	.	.	.
.	42a/LLL	.	.	.	.
.	42e-X/	.	.	.	.
.	42f#/JJJ	.	.	.	.
.	42c/LLL	.	.	.	.
.	42e-/	.	.	.	.
.	42A/JJJ	.	.	.	.
4E-X 4EE-X/	8cL 8A/	.	2ryy	.	.
.	8cJ 8G/	.	.	.	.
4D 4DD;</	4c 4F#X;/	.	.	.	.
!!linebreak:original
=35||	=35||	=35||	=35||	=35||	=35||
*k[f#]	*k[f#]	*	*k[f#]	*	*
!	!	!	!LO:TX:a:B:t=Allergretto grazioso	!	!
2GG/	8r	.	4d/	Pie-	.
.	8BL 8G/	.	.	.	.
.	8d 8B/	.	8g/	-szczo-	.
.	8gJ 8d/	.	8b\	-ty	.
2G 2GG/	8r	<	4.dd\	Oj-	.
.	8dL 8B/	.	.	.	.
.	8g 8d/	.	.	.	.
.	8bJ 8g/	[	8dd\	-ca	.
=36	=36	=36	=36	=36	=36
2G 2GG/	8r	>	8ee\	Mat-	.
.	8ccL 8g 8e/	.	8ee\	-ki	.
.	8b 8g 8d/	.	8dd\	u-	.
.	8a#XJ 8g 8c#X/	.	8cc#X\	-ści-	.
!	!	!	!	!	!LO:HP:a
2G 2GG/	8r	]	4dd\	-śnie-	>
.	8bL 8g 8d/	.	.	.	.
.	8g 8d 8B/	.	8b\	-nia,	]
.	8bJ 8g 8d/	.	8r	.	.
=37	=37	=37	=37	=37	=37
2D 2DD/	8r	.	(4d/	Za-	.
.	8f#L 8d 8cn/	.	.	.	.
.	8d 8c 8An</	.	8f#/	-mek	.
.	8f#J 8d 8c/	.	8a/	bo-	.
2D 2DD/	8r	.	4.cc\	-ga-	.
.	8aL 8d 8c/	.	.	.	.
.	8d 8c 8F#</	.	.	.	.
.	8aJ 8d 8c/	.	8cc\)	-ty	.
!!pagebreak:original
=38	=38	=38	=38	=38	=38
2G 2GG/	8r	.	(8b\	kra-	.
.	8dL 8B/	.	8b\	-i-	.
.	8g 8d/	.	8a/	-na	.
.	8bJ 8g/	.	8g/	we-	.
2D 2DD/	8r	.	4a/)	-so-	.
.	8aL 8f# 8d/	.	.	.	.
.	8f# 8d 8A/	.	8dd\	-ła,	.
.	8dJ 8A 8F#</	.	8r	.	.
=39	=39	=39	=39	=39	=39
!	!	!	!	!	!LO:HP:a
2G 2GG/	8r	.	4g/	dni	<
.	8dL 8B/	.	.	.	.
.	8g 8d/	.	8b\	bez	.
.	8bJ 8g/	.	8dd\	tę-	[
2G 2GG/	8r	.	4.ffn\	-skno-	.
.	8bL 8g/	.	.	.	.
.	8g 8d/	.	.	.	.
.	8dJ 8B/	.	8ff\	-ty,	.
!!linebreak:original
=40	=40	=40	=40	=40	=40
*^	*	*	*	*	*
2G#X 2GG#X/	2ryy	8r	.	8ffn\	no-	.
.	.	8dL 8B/	.	8ff\	-cy	.
.	.	8fn 8d/	.	8ee\	bez	.
.	.	8bJ 8f/	.	8dd\	ma-	.
!	!	!	!	!	!	!LO:HP:a
4.A/	2AA\	8r	.	4dd#X\	-rze-	>
.	.	8ccL 8a 8e/	.	.	.	.
.	.	8a 8e 8c/	.	8ee\	-nia,	]
8rA	.	8eJ 8c 8A/	.	8r	.	.
*v	*v	*	*	*	*	*
=41	=41	=41	=41	=41	=41
2G#X 2GG#X\	8r	.	(4e/	spo-	.
.	8dL 8B 8E</	.	.	.	.
.	8e 8d 8B/	.	8g#X/	-koj-	.
.	8dJ 8B 8E</	.	8b\	-ność	.
2E 2EE\	8r	.	4.ddn\)	na	.
.	8eL 8d 8G#X</	.	.	.	.
.	8fn 8d 8B/	.	.	.	.
.	8eJ 8d 8G#</	.	8dd\	kształt	.
!!linebreak:original
=42	=42	=42	=42	=42	=42
2G#X 2GG#X\	8r	.	(8dd\	ci-	.
.	8dL 8B 8E</	.	8dd\	-che-	.
.	8e 8d 8B/	.	8cc\	-go	.
.	8dJ 8B 8E</	.	8b\	A-	.
.	.	.	(<8qdd/	.	.
2AA\	8r	.	4cc\)	-nio-	.
.	8cL 8A 8E</	.	.	.	.
.	8fn 8c 8A</	.	8cc\)	-ła,	.
.	8eJ 8c 8A</	.	8r	.	.
=43	=43	=43	=43	=43	=43
!	!	!	!LO:TX:a:i:t=affrett.	!	!
4FF#\	8r	.	4a/	we	.
.	8c 8A< 8D</	.	.	.	.
4DD\	8r	.	8d/	dnie	.
.	8c 8F#< 8D</	.	16r	.	.
.	.	.	16d/	i	.
4GG\	8r	.	4b\	w no-	.
.	8B 8G< 8D</	.	.	.	.
4DD\	8r	.	8f#/	-cy,	.
.	8B 8G< 8D</	.	8g/	na	.
!!linebreak:original
=44	=44	=44	=44	=44	=44
!	!	!	!	!	!LO:HP:a
4AA\	8r	.	4cc\	po-	<
.	8c 8F#< 8D</	.	.	.	.
4DD\	8r	.	8g#X/	-lu	[
.	8c 8F#< 8D</	.	16r	.	.
.	.	.	16a/	i	.
4BB\	8r	.	4ee\	w do-	.
.	8d 8G< 8D</	.	.	.	.
4GG\	8r	.	8dd\	-mie	.
.	8d 8B 8D</	.	8r	.	.
=45	=45	=45	=45	=45	=45
2C#X 2CC#X/	8r	.	8r	.	.
!	!	!	!LO:TX:a:B:t=a tempo.	!	!
.	8B-XL 8G/	.	8ee\	strze-	.
.	8B- 8G/	.	8dd\	-gła	.
.	8B-J 8G/	.	8cc#X\	mnie	.
.	.	.	8qee/	.	.
2D 2DD/	8r	.	4.dd\	z_bli-	.
.	8BnL 8G/	.	.	.	.
.	8B 8G/	.	.	.	.
.	8BJ 8G/	.	8dd\	-ska	.
!!pagebreak:original
=46	=46	=46	=46	=46	=46
2D#X 2DD#X/	8r	.	8cc\	cho-	.
.	8f#L 8c 8A/	.	8cc\	-ciaż	.
.	8f# 8c 8A/	.	8b\	nie-	.
.	8f#J 8c 8A/	.	8a/	-wi-	.
!	!	!	!	!	!LO:HP:a
.	.	.	(<8qcc/	.	>
2E 2EE/	8r	.	4b\)	-do-	.
.	8gL 8B 8G/	.	.	.	.
.	8g 8B 8G/	.	8b\	-mie	]
.	8gJ 8B 8G/	.	8r	.	.
=47	=47	=47	=47	=47	=47
*	*^	*	*	*	*
2Cn 2CCn/	8r	8ryy	.	8r	.	.
.	8gL 8e/	8G\	.	8g/	strze-	.
.	8f# 8d 8G/	4ryy	.	8f#/	-gła	.
.	8eJ 8c/	.	.	8e/	mnie	.
.	.	.	.	8qe/	.	.
!	!LO:TX:b:i:t=rall.	!	!	!LO:TX:a:i:t=rall.	!	!
2D 2DD/	8r	2ryy	.	4.d/	z_bli-	.
.	8dL 8B 8G'/	.	.	.	.	.
.	8d 8B 8G'/	.	.	.	.	.
.	8dJ 8B 8G'/	.	.	8d/	-ska	.
*	*v	*v	*	*	*	*
!!linebreak:original
=48	=48	=48	=48	=48	=48
2D 2DD\	2d 2c 2F#</	.	8d/	cho-	.
.	.	.	8d/	-ciaż	.
.	.	.	8.b\	nie-	.
.	.	.	16a/	-wi-	.
8GG\L	4d 4c 4F#</	.	4a/	-do-	.
8D\	.	.	.	.	.
8G\	4d 4B/	.	8g/	-mie!	.
8D\J	.	.	8r	.	.
=49	=49	=49	=49	=49	=49
8FF#/L	4d#X 4B 4A/	p	1r	.	.
!	!LO:TX:a:B:t=a tempo.	!	!	!	!
8BB/J	.	.	.	.	.
8EE/L	4e 4B 4G/	.	.	.	.
8BB/J	.	.	.	.	.
8DD#X/L	4f# 4B 4A/	.	.	.	.
8BB/	.	.	.	.	.
8EE/	4g 4e 4B/	.	.	.	.
8BB/J	.	.	.	.	.
=50	=50	=50	=50	=50	=50
*	*^	*	*	*	*
2C 2CC/	8b/L	2e\	.	1r	.	.
.	8a/	.	.	.	.	.
.	8g/	.	.	.	.	.
.	8a/J	.	.	.	.	.
!	!LO:TX:b:i:t=rall.	!	!	!	!	!
4BB 4BBB/	8b/L	4f# 4d#X\	.	.	.	.
.	8b/J	.	.	.	.	.
.	8qddn/	.	.	.	.	.
4A 4F# 4BB\	8cc\L	4ryy	.	.	.	.
.	8b\J	.	.	.	.	.
*	*v	*v	*	*	*	*
!!linebreak:original
=51	=51	=51	=51	=51	=51
.	8qdd/	.	.	.	.
4G 4E 4BB\	8cc\L	.	1r;	.	.
.	8b\J	.	.	.	.
.	8qddn/	.	.	.	.
[4F# [4D#X [4BB\	8cc\L	.	.	.	.
.	[8b\J	.	.	.	.
2F#] 2D#] 2BB;\]	2b;\]	.	.	.	.
=52	=52	=52	=52	=52	=52
!	!	!	!LO:TX:a:B:t=Andantino semplice.	!	!
4E 4EE/	8r	.	4b\	Trzy	.
.	8e 8B 8G/	.	.	.	.
4F# 4FF#/	8r	.	8.b\	pię-	.
.	8d#X 8B 8A/	.	.	.	.
.	.	.	16b\	-kne	.
4G 4GG/	8r	.	4.b\	cór-	.
.	8e 8B/	.	.	.	.
4A 4AA\	8r	.	.	.	.
.	8f# 8e 8c/	.	8cc\	-ki	.
!!linebreak:original
=53	=53	=53	=53	=53	=53
4B 4BB\	8r	.	8b\	by-	.
.	8g 8e/	.	8a/	-ło	.
4BB 4BBB/	8r	.	8g/	nas	.
.	8f# 8d#X 8A/	.	8f#/	u	.
4E 4EE/	8r	.	4f#/	Ma-	.
.	8d# 8c 8A/	.	.	.	.
4E 4EE/	8r	.	8e/	-tki	.
.	8e 8B 8G/	.	8r	.	.
=54	=54	=54	=54	=54	=54
4E 4EE/	8r	.	4ee\	A	.
.	8e 8G#X/	.	.	.	.
4F# 4FF#/	8r	.	8.ee\	mnie	.
.	8e 8A/	.	.	.	.
.	.	.	16ee\	naj-	.
4G#X 4GG#X/	8r	.	4.ee\	-pier-	.
.	8e 8B/	.	.	.	.
4A 4AA/	8r	.	.	.	.
.	8e 8c/	.	8ee\	-wéj	.
!!linebreak:original
=55	=55	=55	=55	=55	=55
4B 4BB\	8r	.	8ee\	żą-	.
.	8d 8G#X/	.	8ffn\	-da-	.
4E 4EE/	8r	.	8ee\	-no	.
.	8e 8d 8G#/	.	8b\	w za-	.
4A 4AA\	8r	.	4dd\	-mę-	.
.	8fn 8d 8B 8G#/	.	.	.	.
4A 4AA\	8r	.	8cc\	-ście	.
.	8e 8c/	.	8r	.	.
=56	=56	=56	=56	=56	=56
2Gn 2GGn\	8r	.	4b\	szczę-	.
.	8eL 8B'/	.	.	.	.
.	8e 8B'/	.	8b\	-śli-	.
.	8eJ 8B'/	.	8b\	-wa	.
2F# 2FF#/	8r	.	4.a#X/	mło-	.
.	8eL 8c#X'/	.	.	.	.
.	8e 8c#'/	.	.	.	.
.	8eJ 8c#'/	.	8a#/	-dość	.
!!linebreak:original
=57	=57	=57	=57	=57	=57
4D#X\	8r	.	8an/	szczę-	.
.	8f# 8B 8A/	.	8cc\	-śli-	.
4BB/	8r	.	8b\	-we	.
.	8d#X 8B 8A/	.	8f#/	do-	.
4E\	8r	.	4a/	-sta-	.
.	8e 8B 8Gn/	.	.	.	.
4EE/	8r	.	8g/	-tki,	.
.	8e 8B 8G/	.	8r	.	.
=58	=58	=58	=58	=58	=58
2C/	8r	.	4g/	któż	.
.	8eL 8c 8G/	.	.	.	.
.	8e 8c 8G/	.	8g/	mi	.
.	8eJ 8c 8G/	.	8g/	po-	.
2AA/	8r	.	4.f#/	-wie-	.
.	8eL 8c 8F#</	.	.	.	.
.	8e 8c 8F#</	.	.	.	.
.	8eJ 8c 8F#</	.	8f#/	-dział	.
!!linebreak:original
=59	=59	=59	=59	=59	=59
4AA#X\	8r	.	8e/	że	.
.	8e 8c#X 8F#</	.	8e/	jest	.
4FF#\	8r	.	8f#/	in-	.
.	8e 8A#X< 8F#</	.	8e/	-ne	.
4.BB\	8r	.	4d#X/	szczę-	.
.	8d#XL 8B 8F#</	.	.	.	.
.	8d# 8B 8F#</	.	8b\	-ście?	.
8AAn\	8dnJ 8cn 8F#</	.	8r	.	.
=60	=60	=60	=60	=60	=60
!	!	!	!LO:TX:a:i:t=espressivo	!	!
(16GG\LL	(16B/LL	.	(4b\	Pię-	.
16D\	16d/	.	.	.	.
16G\	16b/	.	.	.	.
16D\JJ)	16g/JJ)	.	.	.	.
(16DD\LL	(16B/LL	.	8b\	-kny	.
16D\	16d/	.	.	.	.
16G\	16b/	.	8b\	mło-	.
16D\JJ)	16g/JJ)	.	.	.	.
(16AA\LL	(16c/LL	.	4.ddn\	-dzień-	.
16D\	16d/	.	.	.	.
16A\	16cc/	.	.	.	.
16D\JJ)	16f#/JJ)	.	.	.	.
(16DD\LL	(16c/LL	.	.	.	.
16D\	16d/	.	.	.	.
16F#\	16a/	.	8cc\)	-cze	.
16D\JJ)	16f#/JJ)	.	.	.	.
!!linebreak:original
=61	=61	=61	=61	=61	=61
(16FF#\LL	(16c/LL	.	8d/	na	.
16D\	16d/	.	.	.	.
16A\	16f#/	.	8d/	coś	.
16D\JJ	16d/JJ)	.	.	.	.
16DD\LL	(16c/LL	.	8e/	mi	.
16D\	16d/	.	.	.	.
16F#\	16a/	.	8d/	po-	.
16D\JJ	16d/JJ)	.	.	.	.
16GG\LL	(16B/LL	.	(4a/	-wie-	.
16D\	16d/	.	.	.	.
16G\	16b/	.	.	.	.
16D\JJ)	16g/JJ)	.	.	.	.
(16DD\LL	(16B/LL	.	8g/)	-dział	.
16D\	16d/	.	.	.	.
16G\	16b/	.	8r	.	.
16D\JJ)	16g/JJ)	.	.	.	.
=62	=62	=62	=62	=62	=62
2BB/	8r	.	(>4g/	to,	.
.	8gL 8d 8G'/	.	.	.	.
.	8g 8d 8G'/	.	8g/	o	.
.	8gJ 8d 8G'/	.	8f#/	czem	.
2C/	8r	.	4.e/	w Li-	.
.	8gL 8e 8G/	.	.	.	.
.	8g 8e 8G/	.	.	.	.
.	8gJ 8e 8G/	.	8e/)	-twie	.
!!pagebreak:original
=63	=63	=63	=63	=63	=63
4C#X/	8r	.	8e/	nikt	.
.	8g 8e 8A/	.	8f#/	pier-	.
4AA/	8r	.	8g/	-wej	.
.	8g 8c#X 8A/	.	8a/	nie	.
4D\	8r	.	4a/	wie-	.
.	8f# 8d 8A/	.	.	.	.
4DD/	8r	.	8d/	-dział!	.
.	8d 8cn 8A/	.	8r	.	.
=64	=64	=64	=64	=64	=64
!	!	!	!LO:TX:a:B:t=Grave.	!	!
8GG/L	4d 4B 4G/	.	4g/	O	.
8AA/	.	.	.	.	.
8BB/	4b 4g 4d 4B/	.	8g/	Bo-	.
8GG/J	.	.	8g/	-gu	.
8DD/L	2a 2f# 2d 2A/	.	4f#/	wiel-	.
8EE/	.	.	.	.	.
!	!	!	!	!	!LO:HP:a
8FF#/	.	.	8f#/	-kim,	<
8DD/J	.	.	8f#/	o	[[
!!linebreak:original
=65	=65	=65	=65	=65	=65
8AA/L	4cc 4a 4e 4c/	.	4a/	ja-	<
8BB/	.	.	.	.	.
8C/	4cc 4a 4e 4c/	.	8a/	-snych	.
!	!	!	!LO:TX:a:i:t=affrett.	!	!
8AA/J	.	.	8a/	A-	[
8E\L	2b 2g#X 2e 2B/	.	4g#X/	-nio-	.
8Fn\	.	.	.	.	.
8E\	.	.	8g#/	-łach,	.
8D\J	.	.	8g#/	ka-	.
=66	=66	=66	=66	=66	=66
8C\L	4ee 4cc 4g 4e/	.	4.cc\	-mien-	.
8D\	.	.	.	.	.
8E\	4ee 4cc 4g 4e/	.	.	.	.
8C\J	.	.	8cc\	-nych	.
8G/L	4dd 4b 4gn 4d/	.	4.b\	Mia-	.
8GG/	.	.	.	.	.
8GG#X/	4b 4e 4d/	.	.	.	.
8EE/J	.	.	8b\	-stach	.
!!linebreak:original
=67	=67	=67	=67	=67	=67
4AA/	4a 4e 4c/	.	8a/	kę-	.
!	!	!	!LO:TX:a:B:t=a tempo.	!	!
.	.	.	8a/	-dy	.
4FFn/	4a 4d#X 4A/	.	8b/	Wia-	.
.	.	.	8a/	-ra	.
!	!	!	!	!	!LO:HP:a
8EE\L	2g#X 2en 2B/	.	4g#X/	świę-	>
8E\	.	.	.	.	.
8D\	.	.	8e/	-ta	]
8BB\J	.	.	8r	.	.
=68	=68	=68	=68	=68	=68
!	!	!	!LO:TX:a:i:t=affrett. a poco a poco	!	!LO:DY:a:rj
2AA/	8aL 8e 8c#X/	.	4a/	gdzie	p
.	8c# 8A/	.	.	.	.
.	8c# 8A/	.	8.a/	lud	.
.	8c#J 8A/	.	.	.	.
.	.	.	16a/	w bo-	.
2BB/	8r	.	4.a/	-ga-	.
.	8dL 8A/	.	.	.	.
.	8d 8A/	.	.	.	.
.	8dJ 8A/	.	8a/	-tych	.
!!pagebreak:original
=69	=69	=69	=69	=69	=69
2C#X/	8r	<	8a/	mo-	.
.	8eL 8A'/	.	8a/	-dli	.
.	8e 8A'/	.	8a/	się	.
.	8eJ 8A'/	[	8a/	ko-	.
.	.	.	(<8qb/	.	.
4D\	8r	.	8a/)	-ścio-	.
.	8f# 8A/	>	8a/	-łach,	.
4Cn/	8r	.	4r	.	.
.	8e 8A#X/	]]	.	.	.
=70	=70	=70	=70	=70	=70
2BB/	8r	p	4b\	I	.
.	8d#XL 8B'/	.	.	.	.
.	8d# 8B'/	.	8b\	kę-	.
.	8d#J 8B'/	.	8b\	-dy	.
2C#X/	8r	.	4.b\	dzie-	.
.	8eL 8B'/	<	.	.	.
.	8e 8B'/	.	.	.	.
.	8eJ 8B'/	[[	8b\	-wic	.
!!pagebreak:original
=71	=71	=71	=71	=71	=71
!	!	!	!	!	!LO:DY:a
2D#X\	8r	.	8b\	słu-	<
.	8f#L 8B'/	<	8cc\	-cha-	.
.	8f# 8B'/	.	8b\	-ją	.
.	8f#J 8B'/	[[	8a/	Xią-	[
.	.	.	8qa/	.	.
2E\	8r	.	4g/	-żę-	.
.	8gL 8B'/	.	.	.	.
.	8g 8B'/	.	8g/	-ta	.
.	8gJ 8B'/	.	8r	.	.
=72	=72	=72	=72	=72	=72
2Dn\	8r	.	4f#/	Wa-	.
.	8f#L 8B'/	<	.	.	.
!	!	!	!	!	!LO:DY:a
.	.	.	8qa/	.	<
.	8f# 8B'/	.	8g/	-le-	.
.	8f#J 8B'/	.	8f#/	-czni	.
2C#X/	8r	.	4e/	w bo-	.
.	8eL 8B'/	.	.	.	.
.	8e 8B'/	.	8cc#X\	-ju	.
.	8eJ 8B'/	[[	8cc#\	jak	[[
!!linebreak:original
=73	=73	=73	=73	=73	=73
4AA#X/	8r	.	4cc#X\	na-	.
.	8e 8c#X/	.	.	.	.
4FF#/	8r	.	8dd\	-si	.
.	8e 8A#X/	.	8ee\	ry-	.
2BB/	8r	.	4ee\	-ce-	.
.	8dL 8B'/	.	.	.	.
.	8d 8B'/	.	8dd\	-rze,	.
.	8dJ 8B'/	.	8r	.	.
=74	=74	=74	=74	=74	=74
!	!	!	!	!	!LO:DY:a
2GG/	8r	.	4dd\	czu-	>
.	8dL 8B'/	>	.	.	.
.	8d 8B'/	.	8.dd\	-li	.
.	8dJ 8B'/	.	.	.	.
!	!LO:TX:a:i:t=riten.	!	!LO:TX:a:i:t=riten.	!	!
.	.	.	16dd\	w mi-	.
2EE/	8r	.	4cc#X\	-ło-	.
.	8c#XL 8B/	.	.	.	.
.	8c# 8B/	.	8cc#\	-ści	]
.	8c#J 8B/	]	8cc#\	jak	.
!!linebreak:original
=75	=75	=75	=75	=75	=75
2EE#X/	8r	.	(4b\	na-	.
.	8c#XL 8B< 8G#X<'>/	.	.	.	.
.	8c# 8B< 8G#<'>/	.	8cc#X\	-si	.
.	8c#J 8B< 8G#<'>/	.	8b\	pa-	.
2FF#/	8r	.	4a#X/	-ste-	.
.	8c#L 8A#X< 8F#<'>/	.	.	.	.
.	8c# 8A#< 8F#<'>/	.	8f#/)	-rze.	.
.	8c#J 8A#< 8F#<'>/	.	8r	.	.
=76	=76	=76	=76	=76	=76
!	!	!	!LO:TX:a:B:t=a tempo.	!	!
2BB/	8r	p	4b\	Gdzie	.
.	8d 8B/	.	.	.	.
.	8eL 8c#X/	.	8b\	czło-	.
.	8eJ 8c#/	.	8b\	-wiek	.
2BBB/	8f#L 8d/	.	4b\	zie-	.
.	8f# 8d/	.	.	.	.
.	8d 8B/	.	8b\	-mne	.
.	8dJ 8B/	.	8b\	zło-	.
!!linebreak:original
=77	=77	=77	=77	=77	=77
2BB 2BBB/	8d#XL 8B/	.	4b\	-ży-	.
.	8d# 8B/	.	.	.	.
.	8e 8c#X/	.	8a#X/	-wszy	.
.	8f#J 8d#/	.	8an/	po-	.
.	.	.	8qa/	.	.
2E 2EE/	8r	.	4g/	-kry-	.
.	8gL 8e 8B/	.	.	.	.
.	8g 8e 8B/	.	8g/	-cie	.
.	8gJ 8e 8B/	.	8r	.	.
=78	=78	=78	=78	=78	=78
2C#X/	8r	.	4g/	z du-	.
.	8gL 8e 8A#X/	.	.	.	.
.	8g 8e 8A#/	.	8.g/	-szą	.
.	8gJ 8e 8A#/	.	.	.	.
!	!	!	!LO:TX:a:i:t=rall.	!	!
.	.	.	16g/	u-	.
2D/	8r	.	4.f#/	-la-	.
.	8f#L 8B/	.	.	.	.
.	8f# 8B/	.	.	.	.
.	8f#J 8B/	.	8b\	-ta	.
!!pagebreak:original
=79	=79	=79	=79	=79	=79
*	*	*	*^	*	*
!	!	!	!LO:TX:a:i:t=ad libitum	!	!	!
4E\	8r	.	8b/	8a\	po	.
.	8g 8c#X 8B/	.	8cc#X/	8g\	ro-	.
4EE/	8r	.	8dd/	8e\	-sko-	.
.	8c# 8B 8G/	.	8ee/	8c#X\	-szném	.
[4FF#\	8r	.	2ff#/	2f#\	Nie-	.
.	8dL 8B 8F#</	.	.	.	.	.
4FF#] 4FFF#\	8d 8B 8F#</	.	.	.	.	.
.	8c#J 8A#X< 8F#< 8E</	.	.	.	.	.
=80	=80	=80	=80	=80	=80	=80
2BB 2BBB\	8BL 8F#< 8D</	.	8b/	8B/	-bie!	.
.	8BJ 8F#< 8D</	.	8r	8ryy	.	.
.	8BL 8F#< 8D#</	.	4r	4ryy	.	.
.	8BJ 8A< 8F#< 8D#</	.	.	.	.	.
2BB 2BBB\	8BL 8G< 8E</	.	2r	2ryy	.	.
.	8B 8G< 8E</	.	.	.	.	.
.	8A#X 8E< 8C#X</	.	.	.	.	.
.	8A#J 8E< 8C#</	.	.	.	.	.
*	*	*	*v	*v	*	*
!!linebreak:original
=81	=81	=81	=81	=81	=81
*^	*	*	*	*	*
4BB 4BBB\	2.ryy	8BL 8F#< 8D</	.	1r	.	.
.	.	8bJ 8B/	.	.	.	.
4A 4F# 4BB\	.	8bL 8d#X 8B/	.	.	.	.
.	.	8bJ 8d# 8B/	.	.	.	.
4G 4E 4BB\	.	8bL 8e 8B/	.	.	.	.
.	.	8b 8g 8e 8B/	.	.	.	.
4G 4E 4BB\	8A#X/L	8cc#X 8g 8e 8c#X/	.	.	.	.
.	8c#X/J	8a#XJ 8g 8e/	.	.	.	.
*v	*v	*	*	*	*	*
=82	=82	=82	=82	=82	=82
4B 4BB\	8bL 8f# 8d#X/	.	1r	.	.
.	8b/J	.	.	.	.
!	!LO:TX:a:i:t=riten.	!	!	!	!
.	8qdd/	.	.	.	.
4An 4F# 4BB\	8cc\L	>	.	.	.
.	8b\J	.	.	.	.
.	8qdd/	.	.	.	.
4G 4E 4BB\	8cc\L	.	.	.	.
.	8b\J	.	.	.	.
.	8qddn/	]	.	.	.
4F# 4D#X 4BB\	8cc\L	.	.	.	.
.	8b\J	.	.	.	.
!!linebreak:original
=83	=83	=83	=83	=83	=83
!	!	!	!LO:TX:a:B:t=Andante con espressione.	!	!
4E 4EE/	8r	p	8b\	Ach!	.
.	8e 8B 8G/	.	8r	.	.
4F# 4FF#/	8r	.	8.b\	ja	.
.	8d#X 8B 8A/	.	.	.	.
.	.	.	16b\	wie-	.
4G 4GG/	8r	.	4.b\	-rzy-	.
.	8e 8B/	.	.	.	.
4A 4AA\	8r	.	.	.	.
.	8f# 8e 8c/	.	8cc\	-łam,	.
=84	=84	=84	=84	=84	=84
4B 4BB\	8r	.	8b\	bo	.
.	8g 8e 8B/	.	8a/	Nie-	.
4BB 4BBB/	8r	.	8g/	-bie-	.
.	8f# 8d#X 8B 8A/	.	8f#/	-skie	.
4E 4EE/	8r	.	4f#/	ży-	.
.	8d# 8c 8A/	.	.	.	.
4E 4EE/	8r	.	8e/	-cie	.
.	8e 8B 8G/	.	8r	.	.
!!linebreak:original
=85	=85	=85	=85	=85	=85
4E 4EE/	8r	.	4ee\	już	.
.	8e 8G#X/	.	.	.	.
!	!	!	!	!	!LO:DY:a
4F# 4FF#/	8r	<	8.ee\	prze-	<
.	8e 8A/	.	.	.	.
.	.	.	16ee\	-czu-	.
4G#X 4GG#X/	8r	.	4.ee\	-wa-	.
.	8e 8B/	.	.	.	.
4A 4AA\	8r	.	.	.	.
.	8e 8c/	[[	8ee\	-łam	[
=86	=86	=86	=86	=86	=86
4B 4BB\	8r	.	8ee\	gdym	.
.	8d 8G#X/	.	8ffn\	słu-	.
!	!	!	!	!	!LO:DY:a
4E 4EE/	8r	.	8ee\	-cha-	>
.	8e 8d 8G#/	.	8b\	-ła	.
4A 4AA\	8r	>	4dd\	cie-	.
.	8fn 8d 8B 8G#/	.	.	.	.
4A 4AA\	8r	.	8cc\	-bie!	]
.	8e 8c/	]	8r	.	.
!!pagebreak:original
=87	=87	=87	=87	=87	=87
2Gn 2GGn/	8r	.	4b\	Ach,	.
.	8eL 8B/	.	.	.	.
.	8e 8B/	.	8b\	od-	.
.	8eJ 8B/	.	8b\	-tąd	.
2F# 2FF#/	8r	.	4.a#X/	ma-	.
.	8eL 8c#X/	.	.	.	.
.	8e 8c#/	.	.	.	.
.	8eJ 8c#/	.	8a#/	-rzę	.
=88	=88	=88	=88	=88	=88
4D#X\	8r	.	(8an/	w do-	.
.	8f#X 8B 8A/	.	8a/	-brych	.
4BB/	8r	.	8b\	i	.
.	8f# 8B 8A/	.	8f#/	złych	.
4E\	8r	.	4a/	lo-	.
.	8e 8B 8G/	.	.	.	.
4EE/	8r	.	8g/)	-sach	.
.	8e 8B 8G/	.	8r	.	.
!!linebreak:original
=89	=89	=89	=89	=89	=89
2C/	8r	.	4g/	tyl-	.
.	8eL 8c 8G/	.	.	.	.
.	8e 8c 8G/	.	8g/	-ko	.
.	8eJ 8c 8G/	.	8g/	o	.
2AA/	8r	.	4.f#/	to-	.
.	8eL 8c 8F#</	.	.	.	.
.	8e 8c 8F#</	.	.	.	.
.	8eJ 8c 8F#</	.	8f#/	-bie,	.
=90	=90	=90	=90	=90	=90
!	!	!	!LO:TX:a:i:t=poco riten.	!	!
4AA#X\	8r	.	8e/	tyl-	.
.	8e 8c#X 8F#</	.	8e/	-ko	.
4FF#\	8r	.	8f#/	o	.
.	8e 8A#X< 8F#</	.	8e/	Nie-	.
4.BB\	8r	.	(4d#X/	-bio-	.
.	8d#XL 8B 8F#</	.	.	.	.
.	8d# 8B 8F#</	.	8b\)	-sach.	.
8AAn\	8dnJ 8cn 8F#</	.	8r	.	.
!!linebreak:original
=91	=91	=91	=91	=91	=91
!	!	!	!LO:TX:a:B:t=a tempo.	!	!
16GG\LL	16B/LL	.	4b\	Krzyż	.
16D\	16d/	.	.	.	.
16G\	16b/	.	.	.	.
16D\JJ	16g/JJ	.	.	.	.
16DD\LL	16B/LL	.	8.b\	na	.
16D\	16d/	.	.	.	.
16G\	16b/	.	.	.	.
16D\JJ	16g/JJ	.	16b\	twych	.
16AA\LL	16c/LL	.	4.ddn\	pier-	.
16D\	16d/	.	.	.	.
16A\	16cc/	.	.	.	.
16D\JJ	16f#/JJ	.	.	.	.
16DD\LL	16c/LL	.	.	.	.
16D\	16d/	.	.	.	.
16F#\	16a/	.	8cc\	-siach	.
16D\JJ	16f#/JJ	.	.	.	.
=92	=92	=92	=92	=92	=92
16FF#\LL	16c/LL	.	8a/	o-	.
16D\	16d/	.	.	.	.
16A\	16f#/	.	8d/	-czy	.
16D\JJ	16d/JJ	.	.	.	.
16DD\LL	16c/LL	.	8e/	me	.
16D\	16d/	.	.	.	.
16F#\	16a/	.	8d/	we-	.
16D\JJ	16d/JJ	.	.	.	.
16GG\LL	16B/LL	.	4a/	-se-	.
16D\	16d/	.	.	.	.
16G\	16b/	.	.	.	.
16D\JJ	16g/JJ	.	.	.	.
16DD\LL	16B/LL	.	8g/	-li,	.
16D\	16d/	.	.	.	.
16G\	16b/	.	8r	.	.
16D\JJ	16g/JJ	.	.	.	.
!!linebreak:original
=93	=93	=93	=93	=93	=93
16GG\LL	16B/LL	.	4b\	w nim	.
16D\	16d/	.	.	.	.
16G\	16g/	.	.	.	.
16D\JJ	16d/JJ	.	.	.	.
16AA\LL	16c/LL	.	8.cc\	o-	.
16D\	16d/	.	.	.	.
16A\	16f#/	.	.	.	.
16D\JJ	16d/JJ	.	16cc\	-glą-	.
16BB\LL	16G/LL	.	4.dd\	-da-	.
16D\	16B/	.	.	.	.
16G\	16d/	.	.	.	.
16B\JJ	16g/JJ	.	.	.	.
16BB\LL	16d/LL	.	.	.	.
16D\	16g/	.	.	.	.
16G\	16b/	.	8dd\	-łam	.
16B\JJ	16dd/JJ	.	.	.	.
=94	=94	=94	=94	=94	=94
8cL 8C\	8eeL 8cc 8g/	.	8ee\	przy-	.
8B 8BB\	8gg 8dd 8g/	.	8dd\	-szłe	.
8A 8AA\	8dd 8cc 8f# 8d/	.	8cc\	szczę-	.
8GJ 8GG\	8ddJ 8b 8g 8d/	.	8b\	-ścia	.
4D 4DD/	16r	.	4b\	ha-	.
.	16d/LL	.	.	.	.
.	16g#X 16e#X/	.	.	.	.
.	16d/JJ	.	.	.	.
4D 4DD/	16r	.	8a/	-sło,	.
.	16d/LL	.	.	.	.
.	16a 16f#/	.	16r	.	.
.	16d/JJ	.	16a/	nie-	.
!!pagebreak:original
=95	=95	=95	=95	=95	=95
4BB 4BBB\	16ryy	.	4.g/	-ste-	.
!	!	!	!LO:TX:a:i:t=agitato.	!	!
.	16D</LL	.	.	.	.
.	16Gn</	.	.	.	.
.	16d/JJ	.	.	.	.
4BB 4BBB\	16r	.	.	.	.
.	16D</LL	.	.	.	.
.	16G</	.	8g/	-ty	.
.	16d/JJ	.	.	.	.
4C 4CC\	16r	.	4a-X/	z krzy-	.
.	16E-X</LL	.	.	.	.
.	16A-X</	.	.	.	.
.	16e-X/JJ	.	.	.	.
4C 4CC\	16r	.	8.a-/	-ża	.
.	16E-</LL	.	.	.	.
.	16A-</	.	.	.	.
.	16e-/JJ	.	16a-/	gdy	.
!!linebreak:original
=96	=96	=96	=96	=96	=96
8C#XL 8CC#\	8A<L 8E</	.	8a/	pio-	.
!	!LO:TX:b:i:t=affrett.	!	!LO:TX:a:i:t=affrett.	!	!
.	.	.	.	.	.
8D 8DD\	8B-X< 8Fn</	.	8b-X\	-run	.
8D#X 8DD#X\	8Bn< 8F#X</	.	8bn/	wy-	.
.	.	.	8qddn/	.	.
[8EJ [8EE\	[8cn<J [8G</	.	8cc\	-strze-	.
2E] 2EE\]	2c<] 2G<;/]	.	2cc;\	-li!	.
=97	=97	=97	=97	=97	=97
!	!	!	!LO:TX:a:i:t=lento	!	!LO:DY:a:rj
2Cn 2CCn\	2e 2A#X 2G</	.	4e/	wszy-	p
.	.	.	8.e/	-stko	.
.	.	.	16e/	do	.
4.BB 4.BBB/	4.e 4.B 4.G/	.	8b\	ko-	.
.	.	.	8B/	-ła,	.
.	.	.	8r	.	.
8r	8r	.	8cc#X\	u-	.
!!linebreak:original
=98	=98	=98	=98	=98	=98
2AA#X 2AAA#X\	2e 2c#X 2G</	.	8cc#X\	-ci-	.
!	!	!	!LO:SIC:v:s=8c#/	!	!
.	.	.	8c/	-chło	.
.	.	.	8r	.	.
.	.	.	8dd#X\	za-	.
!	!	!	!LO:TX:a:i:t=riten.	!	!
2AAn 2AAAn/	2f# 2d#X 2B/	.	8dd#\	-ga-	.
.	.	.	8d#X/	-sło	.
.	.	.	4r	.	.
=99	=99	=99	=99	=99	=99
!	!	!	!LO:TX:a:B:t=a tempo.	!	!
4GG 4GGG\	4g 4e 4B/	.	4e/	wszy-	.
4AA 4AAA\	4cn 4F#< 4E</	.	8.e/	-stko	.
.	.	.	16f#/	u-	.
2BB 2BBB\	4B 4G< 4E</	.	4g/	-ci-	.
.	4B 4A< 4D#X</	.	8.f#/	-chło	.
.	.	.	16g/	za-	.
!!linebreak:original
=100	=100	=100	=100	=100	=100
.	.	.	8qf#/	.	.
*	*^	*	*	*	*
8EE\L	2B 2G< 2E</	2ryy	.	8e/	-ga-	.
8BB\	.	.	.	8e/	-sło.	.
8E\	.	.	.	4r	.	.
8BB\J	.	.	.	.	.	.
8EE\L	8e/L	4B [4G\	.	2r	.	.
8BB\	8B/	.	.	.	.	.
.	8qd/	.	.	.	.	.
8E\	8c/	4G\]	.	.	.	.
8BB\J	8B/J	.	.	.	.	.
*	*v	*v	*	*	*	*
=101	=101	=101	=101	=101	=101
!	!	!	!LO:TX:a:B:t=primo tempo.	!	!
8EE\L	2d#X 2B 2A</	.	4f#/	Nie	.
8BB\	.	.	.	.	.
8D#X\	.	.	8.g/	nie	.
8BB\J	.	.	.	.	.
.	.	.	16f#/	ża-	.
8EE\L	2e 2B 2G</	.	4e/	-łu-	.
8BB\	.	.	.	.	.
8E\	.	.	4b\	-ję	.
8BB\J	.	.	.	.	.
!!pagebreak:original
=102	=102	=102	=102	=102	=102
*^	*	*	*	*	*
!	!	!	!	!	!	!LO:DY:a
4BB [4EE\	4ryy	8eL 8G#X< 8E</	.	(8b\	choć	<
.	.	8e 8G#< 8E</	.	8b\	gorz-	.
8C\L	4EE\]	8e 8A< 8E</	.	8a/	-kie	.
8Dn\J	.	8eJ 8B< 8E</	.	8b\	łzy	[
.	.	.	.	8qdd/	.	.
2E 2AA\	2ryy	8r	.	4cc\	le-	.
.	.	8eL 8c 8A/	.	.	.	.
.	.	8e 8c 8A/	.	8cc\)	-ję,	.
.	.	8eJ 8c 8A/	.	8r	.	.
*v	*v	*	*	*	*	*
=103	=103	=103	=103	=103	=103
2D#X\	8r	.	4cc\	boś	.
.	8aL 8f# 8c/	.	.	.	.
.	8a 8f# 8c/	.	8cc\	wszy-	.
.	8aJ 8f# 8c/	.	8cc\	-stko	.
4E\	8r	.	4.b\	od-	.
.	8gn 8e 8B/	.	.	.	.
4Gn\	8r	.	.	.	.
.	8e 8B/	.	8g/	-jął	.
!!linebreak:original
=104	=104	=104	=104	=104	=104
*	*^	*	*	*	*
2AA#X\	8r	2.ryy	.	8g/	zo-	.
.	8eL 8c#X 8G/	.	.	8g/	-sta-	.
.	8e 8c# 8G/	.	.	8f#/	-wił	.
.	8eJ 8c# 8G/	.	.	8e/	na-	.
2BB\	8d#XL 8B< 8F#</	.	.	4b\	-dzie-	.
.	8bJ 8d# 8B/	.	.	.	.	.
.	4b/	8eL 8c#X\	.	4b\	-ję,	.
.	.	8f#J 8d#\	.	.	.	.
=105	=105	=105	=105	=105	=105	=105
8BBB/L	4b/	8rc	.	(8b/L	nie	.
8BB/J	.	8d#X 8A\	.	8f#/J)	.	.
.	.	.	.	16qqf#/LL	.	.
.	.	.	.	16qqa/JJ	.	.
8D#X/L	4b/	8rc	.	8g/	nie	.
8BB/J	.	8d# 8A\	.	8f#/	ża-	.
8EE/L	4b/	8rc	.	4e/	-łu-	.
8BB/	.	8e 8G\	.	.	.	.
8E/	4g/	8rc	.	4b\	-ję	.
8BB/J	.	8B 8G\	.	.	.	.
*	*v	*v	*	*	*	*
!!linebreak:original
=106	=106	=106	=106	=106	=106
*^	*	*	*	*	*
4BB [<4EE\	4ryy	8r	.	8b\	choć	.
.	.	8eL 8G#X< 8E</	.	8b\	gorz-	.
8C\L	4EE\]	8e 8A< 8E</	.	8a\	-kie	.
8D\J	.	8eJ 8B< 8E</	.	8b\	łzy	.
2E 2AA\	2ryy	8r	.	4dd\	le-	.
.	.	8eL 8c 8A/	.	.	.	.
.	.	8e 8c 8A/	.	4cc\	-ję	.
.	.	8eJ 8c 8A/	.	.	.	.
*v	*v	*	*	*	*	*
=107	=107	=107	=107	=107	=107
!	!	!	!	!	!LO:HP:a
2D\	8r	.	4cc\	boś	<
.	8aL 8f# 8c/	.	.	.	.
.	8a 8f# 8c/	.	8cc\	wszyst-	.
.	8aJ 8f# 8c/	.	8cc\	-ko	.
4E\	8r	.	4.b\	od-	.
.	8gn 8B/	<	.	.	.
4GGn/	8r	.	.	.	.
.	8b 8e 8B/	[[	8ee\	-jął	[
!!linebreak:original
=108	=108	=108	=108	=108	=108
!	!	!	!LO:TX:a:i:t=riten.	!	!LO:DY:a
8AA/	8r	.	8dd\	zos-	>
8r	8cc 8f# 8e/	.	8cc\	-ta-	.
8C/	8r	.	8a/	-wił	.
8r	8f# 8e 8A/	.	8f#/	na-	.
[>2BB/	8r	.	[2b\	-dzie-	]
.	8gL 8e 8B/	>	.	.	.
.	8g 8e 8B/	.	.	.	.
.	8gJ 8e 8B/	.	.	.	.
=109	=109	=109	=109	=109	=109
2BB] 2BBB/	8f#L 8e 8B/	.	2b\]	.	.
.	8f# 8e 8B/	.	.	.	.
.	8f# 8d#X 8B/	.	.	.	.
.	8f#J 8d# 8B 8A/	]	.	.	.
4EE/	4e: 4B: 4G:/	.	8e/	-ję!	.
.	.	.	8r	.	.
4E: 4BB: 4GG: 4EE:/	4g: 4e: 4B: 4G:/	.	4r	.	.
=110	=110	=110	=110	=110	=110
1E: 1BB: 1GG: 1EE;<:	1e: 1B: 1G;:	.	1r;	.	.
==	==	==	==	==	==
*-	*-	*-	*-	*-	*-
!!!system-decoration: s1{(s2,s3)}
!!!RDF**kern: > = above
!!!RDF**kern: < = below
!!!ENC: Katarzyna Serwa
!!!END: 2021-10-24
!!!ENC: Anastazja Marusiak
!!!END: 2021-09-10
!!!YEC: Copyright 2022 Narodowy Instytut Fryderyka Chopina (https://polishscores.org)
!!!YEM: License CC-BY-4.0 (https://creativecommons.org/licenses/by/4.0)
